X: 9
T:Temperance Reel, The
T:Teetotaller's Reel, The
M:C|
L:1/8
R:reel
K:G
D|"G"G2GF GABc|d2ge dBAc|"Em"BEDE EFGA|"D"BGAF GFED|!
"G"~G3F GABc|dBge dBAc|"Em"BEDE EFGA|"D"BGAF "G"G3:|!
A|"Em"Beed e3g|fgaf gfed|"D"Bdd^c d3 e|fgaf gfed|!
"Em"Beed ~e3 g|fgaf gfed|BEDE EFGA|"D"BGAF "G"G3:|!
